Newaita-dark/.places-manjaro/22/folder-script.svg

<svg xmlns="http://www.w3.org/2000/svg" xmlns:xlink="http://www.w3.org/1999/xlink" width="22px" height="22px" viewBox="0 0 22 22" version="1.1">
<defs>
<linearGradient id="linear0" gradientUnits="userSpaceOnUse" x1="254" y1="233.5" x2="254" y2="254.667007" gradientTransform="matrix(0.0429722,0,0,0.0429722,0,9.239313)">
<stop offset="0" style="stop-color:rgb(0%,0%,0%);stop-opacity:0.275;"/>
<stop offset="1" style="stop-color:rgb(0%,0%,0%);stop-opacity:0;"/>
</linearGradient>
<radialGradient id="radial0" gradientUnits="userSpaceOnUse" cx="450.908997" cy="189.578995" fx="450.908997" fy="189.578995" r="21.167" gradientTransform="matrix(0,-0.0537144,-0.09669,0,37.204064,43.721563)">
<stop offset="0" style="stop-color:rgb(0%,0%,0%);stop-opacity:0.314;"/>
<stop offset="0.222" style="stop-color:rgb(0%,0%,0%);stop-opacity:0.275;"/>
<stop offset="1" style="stop-color:rgb(0%,0%,0%);stop-opacity:0;"/>
</radialGradient>
<radialGradient id="radial1" gradientUnits="userSpaceOnUse" cx="450.908997" cy="189.578995" fx="450.908997" fy="189.578995" r="21.167" gradientTransform="matrix(0,0.0537144,0.09669,0,-15.373875,-5.175156)">
<stop offset="0" style="stop-color:rgb(0%,0%,0%);stop-opacity:0.314;"/>
<stop offset="0.222" style="stop-color:rgb(0%,0%,0%);stop-opacity:0.275;"/>
<stop offset="1" style="stop-color:rgb(0%,0%,0%);stop-opacity:0;"/>
</radialGradient>
<radialGradient id="radial2" gradientUnits="userSpaceOnUse" cx="450.908997" cy="189.578995" fx="450.908997" fy="189.578995" r="21.167" gradientTransform="matrix(0,-0.0537144,0.09669,0,-15.373875,43.721563)">
<stop offset="0" style="stop-color:rgb(0%,0%,0%);stop-opacity:0.314;"/>
<stop offset="0.222" style="stop-color:rgb(0%,0%,0%);stop-opacity:0.275;"/>
<stop offset="1" style="stop-color:rgb(0%,0%,0%);stop-opacity:0;"/>
</radialGradient>
<radialGradient id="radial3" gradientUnits="userSpaceOnUse" cx="450.908997" cy="189.578995" fx="450.908997" fy="189.578995" r="21.167" gradientTransform="matrix(0,0.0537144,-0.09669,0,37.204064,-5.175156)">
<stop offset="0" style="stop-color:rgb(0%,0%,0%);stop-opacity:0.314;"/>
<stop offset="0.222" style="stop-color:rgb(0%,0%,0%);stop-opacity:0.275;"/>
<stop offset="1" style="stop-color:rgb(0%,0%,0%);stop-opacity:0;"/>
</radialGradient>
<linearGradient id="linear1" gradientUnits="userSpaceOnUse" x1="254" y1="-147.5" x2="254" y2="-31.083" gradientTransform="matrix(0.0429722,0,0,0.0429722,0,9.239313)">
<stop offset="0" style="stop-color:rgb(64.313728%,64.313728%,64.313728%);stop-opacity:0;"/>
<stop offset="1" style="stop-color:rgb(100%,100%,100%);stop-opacity:0.196;"/>
</linearGradient>
<linearGradient id="linear2" gradientUnits="userSpaceOnUse" x1="254" y1="233.5" x2="254" y2="-105.167" gradientTransform="matrix(0.0429722,0,0,0.0429722,0,9.239313)">
<stop offset="0" style="stop-color:rgb(34.509805%,34.509805%,34.509805%);stop-opacity:0;"/>
<stop offset="1" style="stop-color:rgb(98.039216%,98.039216%,98.039216%);stop-opacity:0.196;"/>
</linearGradient>
<linearGradient id="linear3" gradientUnits="userSpaceOnUse" x1="243.417007" y1="-147.5" x2="243.417007" y2="233.5" gradientTransform="matrix(0.0429722,0,0,0.0429722,0,9.239313)">
<stop offset="0" style="stop-color:rgb(64.313728%,64.313728%,64.313728%);stop-opacity:0;"/>
<stop offset="1" style="stop-color:rgb(100%,100%,100%);stop-opacity:0.196;"/>
</linearGradient>
</defs>
<g id="surface1">
<path style=" stroke:none;fill-rule:nonzero;fill:url(#linear0);" d="M 2.730469 19.273438 L 19.101562 19.273438 L 19.101562 20.183594 L 2.726562 20.183594 Z M 2.730469 19.273438 "/>
<path style=" stroke:none;fill-rule:nonzero;fill:url(#radial0);" d="M 19.101562 19.273438 L 20.921875 19.273438 L 20.921875 18.363281 L 19.101562 18.363281 Z M 19.101562 19.273438 "/>
<path style=" stroke:none;fill-rule:nonzero;fill:url(#radial1);" d="M 2.730469 19.273438 L 0.910156 19.273438 L 0.910156 20.183594 L 2.726562 20.183594 Z M 2.730469 19.273438 "/>
<path style=" stroke:none;fill-rule:nonzero;fill:url(#radial2);" d="M 2.730469 19.273438 L 0.910156 19.273438 L 0.910156 18.363281 L 2.726562 18.363281 Z M 2.730469 19.273438 "/>
<path style=" stroke:none;fill-rule:nonzero;fill:url(#radial3);" d="M 19.101562 19.273438 L 20.921875 19.273438 L 20.921875 20.183594 L 19.101562 20.183594 Z M 19.101562 19.273438 "/>
<path style=" stroke:none;fill-rule:nonzero;fill:rgb(25.882354%,25.882354%,25.882354%);fill-opacity:1;" d="M 5.003906 2.902344 L 19.78125 2.902344 C 20.023438 2.898438 20.257812 2.996094 20.425781 3.167969 C 20.597656 3.335938 20.691406 3.570312 20.691406 3.8125 L 20.691406 7.222656 C 20.691406 7.722656 20.285156 8.132812 19.78125 8.128906 L 5.003906 8.128906 C 4.5 8.128906 4.09375 7.722656 4.09375 7.222656 L 4.09375 3.8125 C 4.09375 3.308594 4.5 2.898438 5.003906 2.898438 Z M 5.003906 2.902344 "/>
<path style=" stroke:none;fill-rule:nonzero;fill:url(#linear1);" d="M 5.003906 2.902344 L 19.78125 2.902344 C 20.023438 2.898438 20.257812 2.996094 20.425781 3.167969 C 20.597656 3.335938 20.691406 3.570312 20.691406 3.8125 L 20.691406 7.222656 C 20.691406 7.722656 20.285156 8.132812 19.78125 8.128906 L 5.003906 8.128906 C 4.5 8.128906 4.09375 7.722656 4.09375 7.222656 L 4.09375 3.8125 C 4.09375 3.308594 4.5 2.898438 5.003906 2.898438 Z M 5.003906 2.902344 "/>
<path style=" stroke:none;fill-rule:nonzero;fill:rgb(90.196079%,90.196079%,90.196079%);fill-opacity:0.588;" d="M 5.003906 2.902344 C 4.761719 2.898438 4.53125 2.996094 4.359375 3.167969 C 4.1875 3.335938 4.09375 3.570312 4.09375 3.8125 L 4.09375 3.921875 C 4.09375 3.683594 4.1875 3.449219 4.359375 3.28125 C 4.53125 3.109375 4.761719 3.015625 5.003906 3.015625 L 19.78125 3.015625 C 20.023438 3.015625 20.257812 3.109375 20.425781 3.28125 C 20.597656 3.449219 20.695312 3.683594 20.691406 3.921875 L 20.691406 3.8125 C 20.695312 3.570312 20.597656 3.335938 20.425781 3.167969 C 20.257812 2.996094 20.023438 2.898438 19.78125 2.898438 Z M 5.003906 2.902344 "/>
<path style=" stroke:none;fill-rule:nonzero;fill:rgb(12.941177%,12.941177%,12.941177%);fill-opacity:1;" d="M 5.003906 2.835938 C 4.464844 2.835938 4.027344 3.273438 4.027344 3.8125 L 4.027344 7.222656 C 4.027344 7.480469 4.132812 7.726562 4.3125 7.910156 C 4.496094 8.09375 4.746094 8.195312 5.003906 8.195312 L 19.78125 8.195312 C 20.042969 8.195312 20.289062 8.09375 20.472656 7.910156 C 20.65625 7.726562 20.757812 7.480469 20.757812 7.222656 L 20.757812 3.8125 C 20.757812 3.273438 20.320312 2.835938 19.78125 2.835938 Z M 5.003906 2.964844 L 19.78125 2.964844 C 20.007812 2.964844 20.222656 3.050781 20.382812 3.210938 C 20.539062 3.371094 20.628906 3.585938 20.628906 3.808594 L 20.628906 7.222656 C 20.628906 7.445312 20.539062 7.660156 20.382812 7.820312 C 20.222656 7.976562 20.007812 8.066406 19.78125 8.066406 L 5.003906 8.066406 C 4.777344 8.066406 4.5625 7.976562 4.40625 7.820312 C 4.246094 7.660156 4.15625 7.445312 4.15625 7.222656 L 4.15625 3.8125 C 4.15625 3.585938 4.246094 3.371094 4.402344 3.210938 C 4.5625 3.054688 4.777344 2.964844 5.003906 2.964844 Z M 5.003906 2.964844 "/>
<path style=" stroke:none;fill-rule:nonzero;fill:rgb(10.196079%,73.725492%,61.176473%);fill-opacity:1;" d="M 1.820312 4.71875 C 1.578125 4.71875 1.347656 4.816406 1.175781 4.984375 C 1.003906 5.15625 0.910156 5.386719 0.910156 5.628906 L 0.910156 18.363281 C 0.910156 18.605469 1.003906 18.835938 1.175781 19.007812 C 1.347656 19.175781 1.578125 19.273438 1.820312 19.273438 L 20.011719 19.273438 C 20.253906 19.273438 20.484375 19.175781 20.65625 19.007812 C 20.824219 18.835938 20.921875 18.605469 20.921875 18.363281 L 20.921875 6.992188 L 8.640625 6.992188 C 8.398438 6.992188 8.167969 6.898438 7.996094 6.726562 C 7.828125 6.558594 7.730469 6.324219 7.730469 6.085938 L 7.730469 4.71875 Z M 1.820312 4.71875 "/>
<path style=" stroke:none;fill-rule:nonzero;fill:url(#linear2);" d="M 1.820312 4.71875 C 1.578125 4.71875 1.347656 4.816406 1.175781 4.984375 C 1.003906 5.15625 0.910156 5.386719 0.910156 5.628906 L 0.910156 18.363281 C 0.910156 18.605469 1.003906 18.835938 1.175781 19.007812 C 1.347656 19.175781 1.578125 19.273438 1.820312 19.273438 L 20.011719 19.273438 C 20.253906 19.273438 20.484375 19.175781 20.65625 19.007812 C 20.824219 18.835938 20.921875 18.605469 20.921875 18.363281 L 20.921875 6.992188 L 8.640625 6.992188 C 8.398438 6.992188 8.167969 6.898438 7.996094 6.726562 C 7.828125 6.558594 7.730469 6.324219 7.730469 6.085938 L 7.730469 4.71875 Z M 1.820312 4.71875 "/>
<path style=" stroke:none;fill-rule:nonzero;fill:rgb(0%,0%,0%);fill-opacity:0.196;" d="M 1.820312 19.273438 C 1.578125 19.273438 1.347656 19.175781 1.175781 19.007812 C 1.003906 18.835938 0.910156 18.605469 0.910156 18.363281 L 0.910156 18.25 C 0.910156 18.492188 1.003906 18.722656 1.175781 18.894531 C 1.347656 19.066406 1.578125 19.160156 1.820312 19.160156 L 20.011719 19.160156 C 20.253906 19.160156 20.484375 19.066406 20.65625 18.894531 C 20.824219 18.722656 20.921875 18.492188 20.921875 18.25 L 20.921875 18.363281 C 20.921875 18.605469 20.824219 18.835938 20.65625 19.007812 C 20.484375 19.175781 20.253906 19.273438 20.011719 19.273438 Z M 1.820312 19.273438 "/>
<path style=" stroke:none;fill-rule:nonzero;fill:rgb(90.196079%,90.196079%,90.196079%);fill-opacity:0.937;" d="M 1.820312 4.71875 C 1.578125 4.71875 1.347656 4.816406 1.175781 4.984375 C 1.003906 5.15625 0.910156 5.386719 0.910156 5.628906 L 0.910156 5.742188 C 0.910156 5.5 1.003906 5.269531 1.175781 5.097656 C 1.347656 4.929688 1.578125 4.832031 1.820312 4.832031 L 7.730469 4.832031 L 7.730469 4.71875 Z M 8.585938 7.050781 C 8.34375 7.050781 8.109375 6.957031 7.941406 6.785156 C 7.769531 6.613281 7.675781 6.382812 7.675781 6.140625 L 7.675781 6.027344 C 7.675781 6.269531 7.769531 6.5 7.941406 6.671875 C 8.113281 6.84375 8.34375 6.9375 8.585938 6.9375 L 20.921875 6.9375 L 20.921875 7.050781 Z M 8.585938 7.050781 "/>
<path style=" stroke:none;fill-rule:nonzero;fill:rgb(12.941177%,12.941177%,12.941177%);fill-opacity:1;" d="M 1.820312 4.65625 C 1.5625 4.65625 1.3125 4.757812 1.128906 4.941406 C 0.949219 5.121094 0.84375 5.371094 0.84375 5.628906 L 0.84375 18.363281 C 0.84375 18.621094 0.949219 18.871094 1.128906 19.050781 C 1.3125 19.234375 1.5625 19.335938 1.820312 19.335938 L 20.011719 19.335938 C 20.269531 19.335938 20.515625 19.234375 20.699219 19.050781 C 20.882812 18.871094 20.984375 18.621094 20.984375 18.363281 L 20.984375 6.863281 L 8.640625 6.863281 C 8.417969 6.867188 8.203125 6.777344 8.042969 6.617188 C 7.882812 6.460938 7.796875 6.242188 7.796875 6.019531 L 7.796875 4.65625 Z M 1.820312 4.785156 L 7.667969 4.785156 L 7.667969 6.019531 C 7.667969 6.277344 7.769531 6.527344 7.953125 6.707031 C 8.136719 6.890625 8.382812 6.992188 8.640625 6.992188 L 20.855469 6.992188 L 20.855469 18.363281 C 20.855469 18.589844 20.769531 18.804688 20.609375 18.960938 C 20.449219 19.121094 20.234375 19.210938 20.011719 19.207031 L 1.820312 19.207031 C 1.59375 19.210938 1.378906 19.121094 1.21875 18.960938 C 1.0625 18.804688 0.972656 18.589844 0.972656 18.363281 L 0.972656 5.628906 C 0.972656 5.40625 1.0625 5.1875 1.21875 5.03125 C 1.378906 4.871094 1.59375 4.785156 1.820312 4.785156 Z M 1.820312 4.785156 "/>
<path style=" stroke:none;fill-rule:nonzero;fill:rgb(25.882354%,25.882354%,25.882354%);fill-opacity:1;" d="M 8.53125 8.789062 C 8.410156 8.789062 8.292969 8.835938 8.210938 8.921875 L 7.886719 9.242188 C 7.800781 9.328125 7.753906 9.445312 7.753906 9.566406 C 7.753906 9.6875 7.800781 9.800781 7.886719 9.886719 L 10.460938 12.460938 L 7.886719 15.03125 C 7.800781 15.117188 7.753906 15.234375 7.753906 15.355469 C 7.753906 15.476562 7.800781 15.589844 7.886719 15.675781 L 8.210938 15.996094 C 8.386719 16.175781 8.675781 16.175781 8.851562 15.996094 L 12.070312 12.78125 C 12.246094 12.601562 12.246094 12.316406 12.070312 12.136719 L 11.746094 11.816406 L 8.851562 8.921875 C 8.765625 8.835938 8.652344 8.789062 8.53125 8.789062 Z M 11.371094 14.734375 C 11.117188 14.734375 10.914062 14.9375 10.914062 15.1875 L 10.914062 15.640625 C 10.914062 15.894531 11.117188 16.097656 11.371094 16.097656 L 13.644531 16.097656 C 13.765625 16.097656 13.878906 16.050781 13.964844 15.964844 C 14.050781 15.878906 14.101562 15.761719 14.097656 15.640625 L 14.097656 15.1875 C 14.101562 15.066406 14.050781 14.953125 13.964844 14.867188 C 13.878906 14.78125 13.765625 14.730469 13.644531 14.734375 Z M 11.371094 14.734375 "/>
<path style=" stroke:none;fill-rule:nonzero;fill:url(#linear3);" d="M 8.53125 8.789062 C 8.410156 8.789062 8.292969 8.835938 8.210938 8.921875 L 7.886719 9.242188 C 7.800781 9.328125 7.753906 9.445312 7.753906 9.566406 C 7.753906 9.6875 7.800781 9.800781 7.886719 9.886719 L 10.460938 12.460938 L 7.886719 15.03125 C 7.800781 15.117188 7.753906 15.234375 7.753906 15.355469 C 7.753906 15.476562 7.800781 15.589844 7.886719 15.675781 L 8.210938 15.996094 C 8.386719 16.175781 8.675781 16.175781 8.851562 15.996094 L 12.070312 12.78125 C 12.246094 12.601562 12.246094 12.316406 12.070312 12.136719 L 11.746094 11.816406 L 8.851562 8.921875 C 8.765625 8.835938 8.652344 8.789062 8.53125 8.789062 Z M 11.371094 14.734375 C 11.117188 14.734375 10.914062 14.9375 10.914062 15.1875 L 10.914062 15.640625 C 10.914062 15.894531 11.117188 16.097656 11.371094 16.097656 L 13.644531 16.097656 C 13.765625 16.097656 13.878906 16.050781 13.964844 15.964844 C 14.050781 15.878906 14.101562 15.761719 14.097656 15.640625 L 14.097656 15.1875 C 14.101562 15.066406 14.050781 14.953125 13.964844 14.867188 C 13.878906 14.78125 13.765625 14.730469 13.644531 14.734375 Z M 11.371094 14.734375 "/>
<path style=" stroke:none;fill-rule:nonzero;fill:rgb(12.941177%,12.941177%,12.941177%);fill-opacity:1;" d="M 8.53125 8.722656 C 8.398438 8.722656 8.265625 8.773438 8.164062 8.875 L 7.839844 9.199219 C 7.640625 9.402344 7.640625 9.730469 7.839844 9.933594 L 10.367188 12.460938 L 7.839844 14.988281 C 7.640625 15.191406 7.640625 15.519531 7.839844 15.71875 L 8.164062 16.042969 C 8.367188 16.246094 8.695312 16.246094 8.898438 16.042969 L 11.792969 13.148438 L 12.113281 12.824219 C 12.316406 12.621094 12.316406 12.296875 12.113281 12.089844 L 8.898438 8.875 C 8.800781 8.777344 8.667969 8.722656 8.53125 8.722656 Z M 8.53125 8.851562 C 8.628906 8.851562 8.730469 8.890625 8.808594 8.96875 L 11.699219 11.863281 L 12.023438 12.183594 C 12.175781 12.335938 12.175781 12.582031 12.023438 12.734375 L 8.808594 15.949219 C 8.652344 16.105469 8.410156 16.105469 8.253906 15.949219 L 7.933594 15.628906 C 7.859375 15.558594 7.816406 15.457031 7.816406 15.355469 C 7.816406 15.25 7.859375 15.152344 7.933594 15.078125 L 10.550781 12.460938 L 7.933594 9.839844 C 7.859375 9.769531 7.816406 9.667969 7.816406 9.566406 C 7.816406 9.460938 7.859375 9.363281 7.933594 9.289062 L 8.253906 8.96875 C 8.332031 8.890625 8.429688 8.851562 8.53125 8.851562 Z M 11.371094 14.667969 C 11.082031 14.667969 10.851562 14.902344 10.851562 15.1875 L 10.851562 15.640625 C 10.851562 15.929688 11.082031 16.160156 11.371094 16.160156 L 13.644531 16.160156 C 13.929688 16.160156 14.164062 15.929688 14.164062 15.640625 L 14.164062 15.1875 C 14.164062 14.902344 13.929688 14.667969 13.644531 14.667969 Z M 11.371094 14.796875 L 13.644531 14.796875 C 13.746094 14.796875 13.847656 14.835938 13.921875 14.910156 C 13.996094 14.984375 14.035156 15.085938 14.035156 15.1875 L 14.035156 15.640625 C 14.035156 15.746094 13.996094 15.84375 13.921875 15.917969 C 13.847656 15.992188 13.746094 16.035156 13.644531 16.03125 L 11.371094 16.03125 C 11.265625 16.03125 11.167969 15.992188 11.09375 15.917969 C 11.019531 15.84375 10.980469 15.746094 10.980469 15.640625 L 10.980469 15.1875 C 10.980469 15.085938 11.019531 14.984375 11.09375 14.910156 C 11.167969 14.839844 11.265625 14.796875 11.371094 14.796875 Z M 11.371094 14.796875 "/>
</g>
</svg>

<svg xmlns="http://www.w3.org/2000/svg" width="22pt" height="22pt" viewBox="0 0 22 22"><defs><linearGradient id="a" gradientUnits="userSpaceOnUse" x1="254" y1="233.5" x2="254" y2="254.667" gradientTransform="matrix(.04297 0 0 .04297 0 9.24)"><stop offset="0" stop-opacity=".275"/><stop offset="1" stop-opacity="0"/></linearGradient><radialGradient id="b" gradientUnits="userSpaceOnUse" cx="450.909" cy="189.579" fx="450.909" fy="189.579" r="21.167" gradientTransform="matrix(0 -.05372 -.09669 0 37.204 43.722)"><stop offset="0" stop-opacity=".314"/><stop offset=".222" stop-opacity=".275"/><stop offset="1" stop-opacity="0"/></radialGradient><radialGradient id="c" gradientUnits="userSpaceOnUse" cx="450.909" cy="189.579" fx="450.909" fy="189.579" r="21.167" gradientTransform="matrix(0 .05372 .09669 0 -15.374 -5.175)"><stop offset="0" stop-opacity=".314"/><stop offset=".222" stop-opacity=".275"/><stop offset="1" stop-opacity="0"/></radialGradient><radialGradient id="d" gradientUnits="userSpaceOnUse" cx="450.909" cy="189.579" fx="450.909" fy="189.579" r="21.167" gradientTransform="matrix(0 -.05372 .09669 0 -15.374 43.722)"><stop offset="0" stop-opacity=".314"/><stop offset=".222" stop-opacity=".275"/><stop offset="1" stop-opacity="0"/></radialGradient><radialGradient id="e" gradientUnits="userSpaceOnUse" cx="450.909" cy="189.579" fx="450.909" fy="189.579" r="21.167" gradientTransform="matrix(0 .05372 -.09669 0 37.204 -5.175)"><stop offset="0" stop-opacity=".314"/><stop offset=".222" stop-opacity=".275"/><stop offset="1" stop-opacity="0"/></radialGradient><linearGradient id="f" gradientUnits="userSpaceOnUse" x1="254" y1="-147.5" x2="254" y2="-31.083" gradientTransform="matrix(.04297 0 0 .04297 0 9.24)"><stop offset="0" stop-color="#a4a4a4" stop-opacity="0"/><stop offset="1" stop-color="#fff" stop-opacity=".196"/></linearGradient><linearGradient id="g" gradientUnits="userSpaceOnUse" x1="254" y1="233.5" x2="254" y2="-105.167" gradientTransform="matrix(.04297 0 0 .04297 0 9.24)"><stop offset="0" stop-color="#585858" stop-opacity="0"/><stop offset="1" stop-color="#fafafa" stop-opacity=".196"/></linearGradient><linearGradient id="h" gradientUnits="userSpaceOnUse" x1="243.417" y1="-147.5" x2="243.417" y2="233.5" gradientTransform="matrix(.04297 0 0 .04297 0 9.24)"><stop offset="0" stop-color="#a4a4a4" stop-opacity="0"/><stop offset="1" stop-color="#fff" stop-opacity=".196"/></linearGradient></defs><path d="M2.73 19.273h16.372v.91H2.73zm0 0" fill="url(#a)"/><path d="M19.102 19.273h1.82v-.91h-1.82zm0 0" fill="url(#b)"/><path d="M2.73 19.273H.91v.91h1.82zm0 0" fill="url(#c)"/><path d="M2.73 19.273H.91v-.91h1.82zm0 0" fill="url(#d)"/><path d="M19.102 19.273h1.82v.91h-1.82zm0 0" fill="url(#e)"/><path d="M5.004 2.902h14.781c.5 0 .906.407.906.907v3.414c0 .5-.406.906-.906.906H5.004a.908.908 0 0 1-.91-.906V3.809c0-.5.406-.907.91-.907zm0 0" fill="#424242"/><path d="M5.004 2.902h14.781c.5 0 .906.407.906.907v3.414c0 .5-.406.906-.906.906H5.004a.908.908 0 0 1-.91-.906V3.809c0-.5.406-.907.91-.907zm0 0" fill="url(#f)"/><path d="M5.004 2.902a.905.905 0 0 0-.91.907v.117c0-.504.406-.91.91-.91h14.781c.504 0 .906.406.906.91v-.117a.902.902 0 0 0-.906-.907zm0 0" fill="#e6e6e6" fill-opacity=".588"/><path d="M5.004 2.836a.976.976 0 0 0-.977.973v3.414c0 .535.438.972.977.972h14.781a.975.975 0 0 0 .973-.972V3.809a.975.975 0 0 0-.973-.973zm0 .129h14.781a.84.84 0 0 1 .844.844v3.414a.84.84 0 0 1-.844.843H5.004a.844.844 0 0 1-.848-.843V3.809c0-.47.38-.844.848-.844zm0 0" fill="#212121"/><path d="M1.82 4.719a.909.909 0 0 0-.91.91v12.734c0 .504.406.91.91.91h18.192c.504 0 .91-.406.91-.91V6.993H8.64a.905.905 0 0 1-.91-.907V4.719zm0 0" fill="#1abc9c"/><path d="M1.82 4.719a.909.909 0 0 0-.91.91v12.734c0 .504.406.91.91.91h18.192c.504 0 .91-.406.91-.91V6.993H8.64a.905.905 0 0 1-.91-.907V4.719zm0 0" fill="url(#g)"/><path d="M1.82 19.273a.909.909 0 0 1-.91-.91v-.113c0 .504.406.91.91.91h18.192c.504 0 .91-.406.91-.91v.113c0 .504-.406.91-.91.91zm0 0" fill-opacity=".196"/><path d="M1.82 4.719a.909.909 0 0 0-.91.91v.113c0-.504.406-.91.91-.91h5.91v-.113zm0 0M8.586 7.05a.909.909 0 0 1-.91-.91v-.113c0 .504.406.91.91.91h12.336v.114zm0 0" fill="#e6e6e6" fill-opacity=".937"/><path d="M1.82 4.656a.974.974 0 0 0-.976.973v12.734c0 .54.437.973.976.973h18.192a.97.97 0 0 0 .972-.973v-11.5H8.641a.84.84 0 0 1-.844-.843V4.656zm0 .13h5.848V6.02c0 .539.434.972.973.972h12.214v11.371a.84.84 0 0 1-.843.844H1.82a.844.844 0 0 1-.847-.844V5.63c0-.469.379-.844.847-.844zm0 0" fill="#212121"/><path d="M8.531 8.79a.44.44 0 0 0-.32.132l-.324.32a.46.46 0 0 0 0 .645l2.574 2.574-2.574 2.57a.46.46 0 0 0 0 .645l.324.32c.176.18.465.18.64 0l3.215-3.215a.453.453 0 0 0 0-.644L8.852 8.922a.446.446 0 0 0-.32-.133zm2.84 5.944a.454.454 0 0 0-.457.454v.457c0 .25.203.453.457.453h2.274c.25 0 .453-.203.453-.453v-.457a.453.453 0 0 0-.453-.454zm0 0" fill="#424242"/><path d="M8.531 8.79a.44.44 0 0 0-.32.132l-.324.32a.46.46 0 0 0 0 .645l2.574 2.574-2.574 2.57a.46.46 0 0 0 0 .645l.324.32c.176.18.465.18.64 0l3.215-3.215a.453.453 0 0 0 0-.644L8.852 8.922a.446.446 0 0 0-.32-.133zm2.84 5.944a.454.454 0 0 0-.457.454v.457c0 .25.203.453.457.453h2.274c.25 0 .453-.203.453-.453v-.457a.453.453 0 0 0-.453-.454zm0 0" fill="url(#h)"/><path d="M8.531 8.723a.518.518 0 0 0-.367.152l-.32.324a.519.519 0 0 0 0 .735l2.527 2.527-2.527 2.523a.519.519 0 0 0 0 .735l.32.324a.519.519 0 0 0 .734 0l3.215-3.215a.519.519 0 0 0 0-.734l-.32-.324-2.895-2.895a.518.518 0 0 0-.367-.152zm0 .129c.098 0 .2.039.278.117l2.89 2.894.324.32a.389.389 0 0 1 0 .551l-.324.32-2.89 2.895a.387.387 0 0 1-.555 0l-.32-.32a.389.389 0 0 1 0-.55l2.617-2.618L7.934 9.84a.389.389 0 0 1 0-.55l.32-.321a.388.388 0 0 1 .277-.117zm2.84 5.816a.52.52 0 0 0-.52.52v.457c0 .285.231.515.52.515h2.274c.285 0 .52-.23.52-.515v-.457a.522.522 0 0 0-.52-.52zm0 .129h2.274a.39.39 0 0 1 .39.39v.458a.388.388 0 0 1-.39.386H11.37a.386.386 0 0 1-.39-.386v-.457c0-.22.171-.391.39-.391zm0 0" fill="#212121"/></svg>
